src/assets/sensei/simone.svg

<svg width="117" height="146" viewBox="0 0 117 146" fill="none" xmlns="http://www.w3.org/2000/svg">
<g clip-path="url(#clip0_256_36)">
<path d="M113.556 80.59C112.806 78.57 111.626 76.83 110.416 75.41C109.186 73.99 107.896 72.91 106.666 71.98C105.426 71.04 104.236 70.34 103.116 69.66C102.006 69.01 100.956 68.45 100.006 67.97C99.046 67.49 98.176 67.09 97.406 66.73C96.626 66.37 95.906 66.07 95.336 65.82C94.356 65.38 93.806 65.13 93.806 65.13L93.766 65.11C92.896 64.72 91.946 64.47 90.946 64.37C89.366 64.22 87.846 64.48 86.476 65.07L84.486 64.56L74.236 61.94L64.356 59.42L61.746 62.18C61.466 62.23 61.156 62.28 60.806 62.34C59.306 62.57 57.206 62.93 54.626 63.28C52.046 63.64 49.036 64.08 45.806 64.45C42.566 64.84 39.106 65.29 35.646 65.66C28.686 66.45 21.716 67.24 16.496 67.83C15.816 67.91 15.156 68 14.536 68.07C13.876 68.17 13.246 68.28 12.656 68.37C12.226 68.45 11.826 68.54 11.436 68.62C9.84604 67.6 7.74604 67.59 6.12604 68.77C4.03604 70.3 3.58604 73.24 5.11604 75.33C5.11604 75.33 5.25604 75.52 5.50604 75.86C5.67604 76.07 5.77604 76.27 6.36604 76.87L6.60604 77.1C6.68604 77.17 6.86604 77.34 7.00604 77.44C7.15604 77.55 7.31604 77.69 7.47604 77.8C7.68604 77.93 7.93604 78.11 8.18604 78.22C8.69604 78.45 9.21603 78.68 9.76604 78.76C10.016 78.79 10.166 79.04 10.376 79.04H10.676L10.916 78.79C11.996 78.7 12.236 78.4 12.666 78.36C13.056 78.32 13.446 78.29 13.886 78.27C14.356 78.27 14.846 78.25 15.366 78.24C15.926 78.24 16.526 78.24 17.136 78.24C19.706 78.24 22.726 78.24 25.976 78.3C29.226 78.38 32.706 78.47 36.176 78.55C39.656 78.63 43.136 78.8 46.416 78.91C47.836 78.96 49.216 79.01 50.536 79.07L45.916 91.77H45.496C41.376 91.81 37.256 91.94 33.136 92.07C29.006 92.23 24.886 92.39 20.756 92.65L14.556 93.04C12.486 93.22 10.416 93.35 8.34604 93.56L6.10604 93.79C5.63604 93.84 5.18604 94.1 4.91604 94.52L0.386035 101.49C0.0460353 102.03 -0.0939647 102.7 0.0660353 103.37C0.376035 104.66 1.68604 105.46 2.97604 105.14L11.046 103.18L7.61604 104.14C9.63604 104.64 11.666 105.05 13.696 105.51L19.786 106.75C23.846 107.57 27.906 108.31 31.976 109.03C36.046 109.73 40.106 110.43 44.186 111.03L50.296 111.93C52.086 112.16 53.886 112.41 55.676 112.62L61.216 113.62C64.616 114.23 67.606 116.21 69.516 119.09L69.916 119.69C70.076 120.16 70.266 120.63 70.496 121.08C70.946 121.97 71.466 122.82 71.956 123.7L73.536 126.27C74.596 127.98 75.736 129.65 76.886 131.33C77.766 132.57 78.656 133.81 79.586 135.04L67.956 136.95L67.076 137.09C66.296 137.22 65.616 137.77 65.366 138.58L64.196 142.35C63.916 143.25 64.196 144.27 64.966 144.91C65.986 145.75 67.496 145.6 68.336 144.58L69.436 143.24L89.896 144.57C90.036 144.57 90.176 144.58 90.316 144.57C92.896 144.51 94.926 142.37 94.866 139.79L94.796 136.9C94.766 135.84 94.666 134.81 94.606 133.77L94.286 130.69C94.066 128.64 93.766 126.62 93.456 124.61C93.116 122.61 92.776 120.61 92.346 118.64L91.696 115.69C91.496 114.93 91.306 114.16 91.096 113.4L98.036 83.77C98.416 83.89 98.776 84.0201 99.116 84.16C99.796 84.43 100.436 84.72 100.886 84.98C101.356 85.24 101.646 85.46 101.866 85.66C102.086 85.8601 102.286 86.11 102.406 86.59C102.526 87.06 102.546 87.73 102.446 88.47C102.356 89.2 102.116 90.01 101.856 90.79C101.576 91.58 101.266 92.34 100.936 93.06C100.276 94.49 99.546 95.68 99.056 96.52C98.526 97.35 98.226 97.82 98.226 97.82L98.136 97.96C96.886 99.92 97.256 102.55 99.086 104.08C101.076 105.74 104.036 105.47 105.696 103.48C105.696 103.48 106.116 102.98 106.836 102.11C107.556 101.22 108.596 99.95 109.766 98.25C110.356 97.41 110.976 96.45 111.596 95.36C112.206 94.25 112.826 93.04 113.336 91.59C113.866 90.16 114.316 88.51 114.446 86.59C114.586 84.69 114.326 82.51 113.566 80.5L113.556 80.59ZM12.796 69.86C12.796 69.86 12.756 69.82 12.736 69.8C12.786 69.85 12.836 69.89 12.856 69.9L12.926 69.97C13.096 70.16 12.886 69.97 12.796 69.86Z" fill="#27004B"/>
<path d="M83.106 106.3C83.106 106.3 83.486 115.18 79.326 122.35L75.356 119.14C75.356 119.14 78.566 105.73 82.536 101.58L83.106 106.3Z" fill="#1505C6" stroke="#1505C6" stroke-width="1.13" stroke-linecap="round" stroke-linejoin="round"/>
<path d="M94.0161 100.88L91.1861 113.17L45.2461 92.06L48.1261 86.03L94.0161 100.88Z" fill="#1500FF" stroke="#1500FF" stroke-width="1.05" stroke-linecap="round" stroke-linejoin="round"/>
<path d="M87.0659 98.19L84.0559 110.43L79.8359 109.26L82.8459 97.02L87.0659 98.19Z" fill="#1505C6" stroke="#1505C6" stroke-width="1.05" stroke-linecap="round" stroke-linejoin="round"/>
<path d="M85.376 106.68C85.376 106.68 90.286 116.69 90.476 121.79L87.456 126.13C87.456 126.13 81.976 114.8 83.116 108.38L85.386 106.68H85.376Z" fill="#1505C6" stroke="#1505C6" stroke-width="1.13" stroke-linecap="round" stroke-linejoin="round"/>
<path d="M99.486 45.66C99.486 62.19 83.986 75.6 69.566 75.61C55.146 75.61 39.626 62.22 39.616 45.69C39.616 29.16 53.006 15.75 69.536 15.74C86.066 15.74 99.476 29.13 99.486 45.66Z" fill="#FFDBC5"/>
<path d="M32.636 40.53C29.956 63.37 42.396 77.64 74.296 77.62C106.186 77.61 118.246 63.37 115.926 40.49C113.766 19.25 97.256 0 74.256 0C51.256 0 34.816 21.92 32.626 40.53H32.636ZM40.606 43.93L41.266 41.7C45.036 28.92 56.766 20.15 70.096 20.14C83.416 20.14 95.156 28.9 98.936 41.67L99.596 43.9C101.016 48.69 97.426 53.49 92.436 53.49L47.776 53.51C42.786 53.51 39.196 48.71 40.606 43.92V43.93Z" fill="#27004B"/>
<g style="mix-blend-mode:soft-light">
<path d="M40.0759 44.06L40.7359 41.83C44.5059 29.05 56.2359 20.28 69.5659 20.27C82.8959 20.26 94.6259 29.03 98.4059 41.8L99.0659 44.03C99.4359 45.28 99.4559 46.52 99.2159 47.68C99.1759 47.47 99.1359 47.26 99.0659 47.05L98.4059 44.82C94.6259 32.05 82.8859 23.28 69.5659 23.29C56.2459 23.29 44.5159 32.07 40.7359 44.85L40.0759 47.08C40.0159 47.29 39.9759 47.5 39.9259 47.71C39.6759 46.55 39.7059 45.3 40.0659 44.06H40.0759Z" fill="#453434"/>
</g>
<g style="mix-blend-mode:soft-light">
<path d="M73.7659 74.6C102.396 74.59 115.036 63.11 115.646 44.22C116.316 64.91 103.896 77.61 73.7759 77.63C43.8559 77.64 31.0459 65.09 31.7959 44.67C32.3959 63.29 45.3659 74.62 73.7759 74.61L73.7659 74.6Z" fill="#453434"/>
</g>
<path d="M79.5959 44.4401C79.5959 42.2201 81.3959 40.4301 83.6059 40.4301C85.8159 40.4301 87.6159 42.2201 87.6159 44.4401C87.6159 46.6501 85.8159 48.4501 83.6059 48.4501C81.3959 48.4501 79.5959 46.6601 79.5959 44.4401Z" fill="#293330"/>
<path d="M59.166 44.4401C59.166 42.2201 57.366 40.4301 55.156 40.4301C52.946 40.4301 51.146 42.2301 51.146 44.4401C51.146 46.6501 52.946 48.4501 55.156 48.4501C57.366 48.4501 59.166 46.6501 59.166 44.4401Z" fill="#293330"/>
<path d="M51.166 53.4C51.166 51.62 53.476 50.17 56.326 50.17C59.176 50.17 61.486 51.61 61.486 53.39C61.486 55.17 59.176 56.62 56.326 56.62C53.476 56.62 51.166 55.18 51.166 53.4Z" fill="#FFB0B0"/>
<path d="M77.616 53.39C77.616 51.61 79.926 50.16 82.776 50.16C85.626 50.16 87.936 51.6 87.936 53.38C87.936 55.16 85.626 56.61 82.776 56.61C79.926 56.61 77.616 55.17 77.606 53.39H77.616Z" fill="#FFB0B0"/>
</g>
<defs>
<clipPath id="clip0_256_36">
<rect width="116.21" height="145.5" fill="white"/>
</clipPath>
</defs>
</svg>

<svg fill="none" height="146" viewBox="0 0 117 146" width="117" xmlns="http://www.w3.org/2000/svg" xmlns:xlink="http://www.w3.org/1999/xlink"><clipPath id="a"><path d="m0 0h116.21v145.5h-116.21z"/></clipPath><g clip-path="url(#a)"><path d="m113.556 80.59c-.75-2.02-1.93-3.76-3.14-5.18-1.23-1.42-2.52-2.5-3.75-3.43-1.24-.94-2.43-1.64-3.55-2.32-1.11-.65-2.16-1.21-3.11-1.69-.96-.48-1.83-.88-2.6-1.24-.78-.36-1.5-.66-2.07-.91-.98-.44-1.53-.69-1.53-.69l-.04-.02c-.87-.39-1.82-.64-2.82-.74-1.58-.15-3.1.11-4.47.7l-1.99-.51-10.25-2.62-9.88-2.52-2.61 2.76c-.28.05-.59.1-.94.16-1.5.23-3.6.59-6.18.94-2.58.36-5.59.8-8.82 1.17-3.24.39-6.7.84-10.16 1.21-6.96.79-13.93 1.58-19.15 2.17-.68.08-1.34.17-1.96.24-.66.1-1.29.21-1.88.3-.43.08-.83.17-1.22.25-1.58996-1.02-3.68996-1.03-5.30996.15-2.09 1.53-2.54 4.47-1.01 6.56 0 0 .14.19.39.53.17.21.27.41.86 1.01l.24.23c.08.07.26.24.4.34.15.11.31.25.47.36.21.13.46.31.71.42.51.23 1.02999.46 1.58.54.24996.03.39996.28.60996.28h.3l.24-.25c1.08-.09 1.32-.39 1.75-.43.39-.04.78-.07 1.22-.09.47 0 .96-.02 1.48-.03h1.77c2.57 0 5.59 0 8.84.06 3.25.08 6.73.17 10.2.25 3.48.08 6.96.25 10.24.36 1.42.05 2.8.1 4.12.16l-4.62 12.7h-.42c-4.12.04-8.24.17-12.36.3-4.13.16-8.25.32-12.38.58l-6.2.39c-2.07.18-4.14.31-6.20996.52l-2.24.23c-.47.05-.92.31-1.19.73l-4.530005 6.97c-.3399997.54-.4799997 1.21-.3199997 1.88.3099997 1.29 1.6200047 2.09 2.9100047 1.77l8.06996-1.96-3.42996.96c2.02.5 4.04996.91 6.07996 1.37l6.09 1.24c4.06.82 8.12 1.56 12.19 2.28 4.07.7 8.13 1.4 12.21 2l6.11.9c1.79.23 3.59.48 5.38.69l5.54 1c3.4.61 6.39 2.59 8.3 5.47l.4.6c.16.47.35.94.58 1.39.45.89.97 1.74 1.46 2.62l1.58 2.57c1.06 1.71 2.2 3.38 3.35 5.06.88 1.24 1.77 2.48 2.7 3.71l-11.63 1.91-.88.14c-.78.13-1.46.68-1.71 1.49l-1.17 3.77c-.28.9 0 1.92.77 2.56 1.02.84 2.53.69 3.37-.33l1.1-1.34 20.46 1.33c.14 0 .28.01.42 0 2.58-.06 4.61-2.2 4.55-4.78l-.07-2.89c-.03-1.06-.13-2.09-.19-3.13l-.32-3.08c-.22-2.05-.52-4.07-.83-6.08-.34-2-.68-4-1.11-5.97l-.65-2.95c-.2-.76-.39-1.53-.6-2.29l6.94-29.63c.38.12.74.2501 1.08.39.68.27 1.32.56 1.77.82.47.26.76.48.98.68.22.2001.42.45.54.93.12.47.14 1.14.04 1.88-.09.73-.33 1.54-.59 2.32-.28.79-.59 1.55-.92 2.27-.66 1.43-1.39 2.62-1.88 3.46-.53.83-.83 1.3-.83 1.3l-.09.14c-1.25 1.96-.88 4.59.95 6.12 1.99 1.66 4.95 1.39 6.61-.6 0 0 .42-.5 1.14-1.37.72-.89 1.76-2.16 2.93-3.86.59-.84 1.21-1.8 1.83-2.89.61-1.11 1.23-2.32 1.74-3.77.53-1.43.98-3.08 1.11-5 .14-1.9-.12-4.08-.88-6.09zm-100.76-10.73s-.04-.04-.06-.06c.05.05.1.09.12.1l.07.07c.17.19-.04 0-.13-.11z" fill="#27004b"/><g stroke-linecap="round" stroke-linejoin="round"><path d="m83.106 106.3s.38 8.88-3.78 16.05l-3.97-3.21s3.21-13.41 7.18-17.56z" fill="#1505c6" stroke="#1505c6" stroke-width="1.13"/><path d="m94.0161 100.88-2.83 12.29-45.94-21.11 2.88-6.03z" fill="#1500ff" stroke="#1500ff" stroke-width="1.05"/><path d="m87.0659 98.19-3.01 12.24-4.22-1.17 3.01-12.24z" fill="#1505c6" stroke="#1505c6" stroke-width="1.05"/><path d="m85.376 106.68s4.91 10.01 5.1 15.11l-3.02 4.34s-5.48-11.33-4.34-17.75l2.27-1.7z" fill="#1505c6" stroke="#1505c6" stroke-width="1.13"/></g><path d="m99.486 45.66c0 16.53-15.5 29.94-29.92 29.95-14.42 0-29.94-13.39-29.95-29.92 0-16.53 13.39-29.94 29.92-29.95 16.53 0 29.94 13.39 29.95 29.92z" fill="#ffdbc5"/><path d="m32.636 40.53c-2.68 22.84 9.76 37.11 41.66 37.09 31.89-.01 43.95-14.25 41.63-37.13-2.16-21.24-18.67-40.49-41.67-40.49s-39.44 21.92-41.63 40.53zm7.97 3.4.66-2.23c3.77-12.78 15.5-21.55 28.83-21.56 13.32 0 25.06 8.76 28.84 21.53l.66 2.23c1.42 4.79-2.17 9.59-7.16 9.59l-44.66.02c-4.99 0-8.58-4.8-7.17-9.59z" fill="#27004b"/><path d="m40.0759 44.06.66-2.23c3.77-12.78 15.5-21.55 28.83-21.56s25.06 8.76 28.84 21.53l.66 2.23c.37 1.25.39 2.49.15 3.65-.04-.21-.08-.42-.15-.63l-.66-2.23c-3.78-12.77-15.52-21.54-28.84-21.53-13.32 0-25.05 8.78-28.83 21.56l-.66 2.23c-.06.21-.1.42-.15.63-.25-1.16-.22-2.41.14-3.65z" fill="#453434"/><path d="m73.7659 74.6c28.6301-.01 41.2701-11.49 41.8801-30.38.67 20.69-11.75 33.39-41.8701 33.41-29.92.01-42.73-12.54-41.98-32.96.6 18.62 13.57 29.95 41.98 29.94z" fill="#453434"/><path d="m79.5959 44.4401c0-2.22 1.8-4.01 4.01-4.01s4.01 1.79 4.01 4.01c0 2.21-1.8 4.01-4.01 4.01s-4.01-1.79-4.01-4.01z" fill="#293330"/><path d="m59.166 44.4401c0-2.22-1.8-4.01-4.01-4.01s-4.01 1.8-4.01 4.01 1.8 4.01 4.01 4.01 4.01-1.8 4.01-4.01z" fill="#293330"/><path d="m51.166 53.4c0-1.78 2.31-3.23 5.16-3.23s5.16 1.44 5.16 3.22-2.31 3.23-5.16 3.23-5.16-1.44-5.16-3.22z" fill="#ffb0b0"/><path d="m77.616 53.39c0-1.78 2.31-3.23 5.16-3.23s5.16 1.44 5.16 3.22-2.31 3.23-5.16 3.23-5.16-1.44-5.17-3.22z" fill="#ffb0b0"/></g></svg>
